X:43
T:Quick Step. RHu.043
S:R.Hughes MS,1823,Whitchurch,Shrops.
A:Whitchurch, Shropshire
Z:Neil Brookes 2006
M:6/8
L:1/8
Q:3/8=120
R:Jig
K:C
G|c2de2g|ece ece|c2de2g|ece dBG|!
c2de2g|ece ece|f2de2c|dcB c2::!
g|gab c’ba|gec fdB|gab c’ba|gec d3|!
gab c’ba|gec fdB|f2de2c|dcB c2:|

